X:1502
T:I'll Gang Nae Mair Tae Yon Toon
P:Mr Patrick Duff Junior's Strathspey
C:D. Grant
R:Strathspey (8x40) ABABB
B:RSCDS 15-2
Z:Anselm Lingnau <anselm@strathspey.org>
M:C
L:1/8
K:Dm
f|"Dm"F<FF>G A<F F2|"Am"A>c c>A c2 "Dm"c<f|\
  "Dm"A<FF>G A<F F2|A>d d>c "Gm"d2 "Dm"d<f|
  "Dm"F<FF>G A<F F2|"Am"A>c c>A c2 "Dm"c<d|\
  f>g "A7"a>g "Dm"f>c A>F|A>d "Gm"d>c "Dm"d2 d||
e|"Dm"f>g "A7"a>g "Dm"f>c A>F|"Am"A<c c>A c2 "Dm"c<d|\
  "Dm"f>g "A7"a>g "Dm"f>c A>F|"Am"A>d "Gm"d>c "D"d2 "A7"d<e|
  "Dm"f>g "A7"a>g "Dm"f>c A>F|"Am"A<c c>A c2 "C"cd/e/|\
  "Dm"f>a "A7"g>a "Dm"f>c A>F|A>d "Gm"d>c "Dm"d>e f>c|]
